X: 1
T: Rachamid A Bhean Bheag
M: 4/4
L: 1/8
R: reel
K: Bmin
BA |: FBBA ~B2cB | AFEF AFEA | FBBA ~B2AB |1 ABcA B2BA :|2 cBAc B2Bc ||
   |: ~d2 ~c2 ~B2 ~A2 | ~d2cd ~e2fe | ~d2 ~c2 ~B2 ~A2 | FBBA B2Bc |
      ~d2 ~c2 ~B2 ~A2 | ~d2cd ~e2de | ~f2 ~e2 ~d2 ~c2 | BcBA B2Bc :|
